svgs/light/circle-video.svg

<svg xmlns="http://www.w3.org/2000/svg" viewBox="0 0 512 512"><!--! Font Awesome Pro 6.6.0 by @fontawesome - https://fontawesome.com License - https://fontawesome.com/license (Commercial License) Copyright 2024 Fonticons, Inc. --><path d="M256 32a224 224 0 1 1 0 448 224 224 0 1 1 0-448zm0 480A256 256 0 1 0 256 0a256 256 0 1 0 0 512zm32-320l0 32 0 64 0 32-128 0 0-128 128 0zm32 9.8l0-9.8c0-17.7-14.3-32-32-32l-128 0c-17.7 0-32 14.3-32 32l0 128c0 17.7 14.3 32 32 32l128 0c17.7 0 32-14.3 32-32l0-9.8 74.9 25c4.9 1.6 10.2 .8 14.4-2.2s6.6-7.8 6.6-13l0-128c0-5.1-2.5-10-6.6-13s-9.5-3.8-14.4-2.2l-74.9 25zm0 33.7l64-21.3 0 83.6-64-21.3 0-40.9z"/></svg>

<svg xmlns="http://www.w3.org/2000/svg" viewBox="0 0 512 512"><!--! Font Awesome Pro 6.4.0 by @fontawesome - https://fontawesome.com License - https://fontawesome.com/license (Commercial License) Copyright 2023 Fonticons, Inc. --><path d="M256 32a224 224 0 1 1 0 448 224 224 0 1 1 0-448zm0 480A256 256 0 1 0 256 0a256 256 0 1 0 0 512zm32-320v32 64 32H160V192H288zm32 9.8V192c0-17.7-14.3-32-32-32H160c-17.7 0-32 14.3-32 32V320c0 17.7 14.3 32 32 32H288c17.7 0 32-14.3 32-32v-9.8l74.9 25c4.9 1.6 10.2 .8 14.4-2.2s6.6-7.8 6.6-13V192c0-5.1-2.5-10-6.6-13s-9.5-3.8-14.4-2.2l-74.9 25zm0 33.7l64-21.3v83.6l-64-21.3V235.5z"/></svg>
